public/assets/images/linklead-logo.svg

<svg width="381" height="70" viewBox="0 0 381 70" fill="none" xmlns="http://www.w3.org/2000/svg">
<g clip-path="url(#clip0_107_48)">
<path d="M81.4702 14.8203H93.4202V52.5103H117.46V63.8903H81.4802V14.8203H81.4702Z" fill="#231F20"/>
<path d="M118.49 16.67C118.49 13.4 121.12 10.77 124.32 10.77C127.52 10.77 130.29 13.4 130.29 16.67C130.29 19.66 127.59 22.5 124.32 22.5C121.05 22.5 118.49 19.66 118.49 16.67ZM118.91 25.56H129.79V63.89H118.91V25.56Z" fill="#231F20"/>
<path d="M134.8 44.19C134.8 33.03 143.26 24.71 154.14 24.71C165.02 24.71 173.41 33.03 173.41 44.19V63.89H162.03V44.19C162.03 39.14 158.83 36.08 154.14 36.08C149.45 36.08 146.18 39.21 146.18 44.19V63.89H134.8V44.19Z" fill="#231F20"/>
<path d="M217.49 63.8901H203.55L193.38 50.5201L190.46 52.3001V63.8901H179.08V27.9801C179.08 19.2301 184.91 9.92014 196.43 9.99014V21.3701C192.8 21.3701 190.46 24.1401 190.46 28.0501V38.3601L201.13 25.5601H214.36L201.13 42.1301L217.49 63.8901Z" fill="#231F20"/>
<path d="M219.46 14.8203H231.41V52.5103H255.45V63.8903H219.47V14.8203H219.46Z" fill="#231F20"/>
<path d="M255.45 44.4803C255.45 34.3103 262.13 24.5703 274.01 24.5703C286.81 24.6403 295.84 35.0203 291.93 49.4603H267.89C268.53 52.0203 272.01 54.4403 275.93 54.5103C278.49 54.5103 282.4 53.5103 283.47 52.0203L292.07 58.6303C288.16 62.9003 281.97 64.6003 274.93 64.6003C263.41 64.6003 255.45 54.4303 255.45 44.4803ZM280.76 39.7103C281.04 37.9303 279.34 34.5903 274.36 34.5903C269.88 34.5903 267.89 37.5803 267.89 39.7103H280.76Z" fill="#231F20"/>
<path d="M294.17 44.5503C294.17 33.6703 303.06 24.7803 314.08 24.7803C325.1 24.7803 333.85 33.6703 333.85 44.5503V64.8203H322.47V61.1903C320.41 63.1103 317.35 64.3903 314.08 64.3903C303.06 64.3903 294.17 55.5003 294.17 44.5503ZM322.47 44.5503C322.47 39.9303 318.7 36.1603 314.08 36.1603C309.46 36.1603 305.55 39.9303 305.55 44.5503C305.55 49.1703 309.32 53.0103 314.08 53.0103C318.84 53.0103 322.47 49.2403 322.47 44.5503Z" fill="#231F20"/>
<path d="M336.61 45.2603C336.61 34.3103 345.57 25.4204 356.52 25.4204C359.86 25.4204 362.92 26.7004 365.05 28.7604V14.1104H376.43V46.6804C376.43 50.3104 378.49 52.1604 380.27 52.1604V63.8904C376.15 63.8904 372.66 63.6804 369.6 59.5504C366.33 63.2504 362.42 65.1703 356.52 65.1703C345.57 65.1703 336.61 56.2803 336.61 45.2603ZM365.05 45.2603C365.05 40.5703 361.21 36.8004 356.52 36.8004C351.83 36.8004 347.99 40.5703 347.99 45.2603C347.99 49.9503 351.83 53.7904 356.52 53.7904C361.21 53.7904 365.05 50.0203 365.05 45.2603Z" fill="#231F20"/>
<g clip-path="url(#clip1_107_48)">
<path d="M19 56.3235L19.2256 42.0762L60.6011 42.7229C63.0825 42.761 65.0376 44.8153 65 47.3262L64.6616 70.0191L31.6326 69.5055C24.5644 69.3914 18.906 63.4947 19.0188 56.3425L19 56.3235Z" fill="#009852"/>
<path d="M19.0187 55.2962V22.9022C18.9999 19.8777 20.7482 15.6929 22.8912 13.5815L36.7457 0L52.3485 16.2826C54.078 18.0707 54.0216 20.9429 52.2545 22.6929L19.0187 55.2962Z" fill="#07AA59"/>
</g>
</g>
<defs>
<clipPath id="clip0_107_48">
<rect width="380.27" height="69.72" fill="white"/>
</clipPath>
<clipPath id="clip1_107_48">
<rect width="46" height="70" fill="white" transform="translate(19)"/>
</clipPath>
</defs>
</svg>

<?xml version="1.0" encoding="UTF-8"?>
<svg id="Layer_2" data-name="Layer 2" xmlns="http://www.w3.org/2000/svg" viewBox="0 0 380.27 69.72">
  <defs>
    <style>
      .cls-1 {
        fill: #07aa59;
      }

      .cls-2 {
        fill: #009852;
      }

      .cls-3 {
        fill: #231f20;
      }
    </style>
  </defs>
  <g id="Layer_1-2" data-name="Layer 1">
    <g>
      <g>
        <path class="cls-2" d="M35.28,24.43l-7.49-.06.17-22.01C27.97,1.05,29.04-.01,30.36,0l11.93.09-.14,17.57c-.03,3.76-3.1,6.79-6.87,6.76Z"/>
        <path class="cls-1" d="M34.74,24.43l-17.03.15c-1.59.01-3.8-.9-4.91-2.03l-7.2-7.31L14.1,6.86c.94-.92,2.44-.91,3.37.03l17.27,17.54Z"/>
      </g>
      <g>
        <path class="cls-2" d="M45.26,35.31l.12-7.49,22.01.34c1.32.02,2.36,1.1,2.34,2.42l-.18,11.93-17.57-.27c-3.76-.06-6.77-3.16-6.71-6.92Z"/>
        <path class="cls-1" d="M45.26,34.76v-17.03c-.01-1.59.92-3.79,2.06-4.9l7.36-7.14,8.3,8.56c.92.94.89,2.45-.05,3.37l-17.67,17.13Z"/>
      </g>
      <g>
        <path class="cls-2" d="M34.3,45.18l7.49.24-.69,22c-.04,1.31-1.14,2.35-2.46,2.31l-11.92-.38.55-17.57c.12-3.76,3.26-6.72,7.03-6.6Z"/>
        <path class="cls-1" d="M34.85,45.19l17.03.26c1.59.02,3.78.99,4.86,2.15l7.02,7.48-8.7,8.16c-.96.9-2.47.85-3.37-.11l-16.85-17.95Z"/>
      </g>
      <g>
        <path class="cls-2" d="M24.51,34.56l-.19,7.49-22-.57c-1.31-.03-2.35-1.13-2.32-2.44l.31-11.92,17.57.46c3.76.1,6.73,3.23,6.64,6.99Z"/>
        <path class="cls-1" d="M24.5,35.1l-.16,17.03c-.02,1.59-.97,3.78-2.12,4.88l-7.44,7.06-8.21-8.65c-.91-.95-.87-2.46.09-3.37l17.85-16.95Z"/>
      </g>
      <circle class="cls-2" cx="34.98" cy="34.93" r="7.2"/>
    </g>
    <g>
      <path class="cls-3" d="M81.47,14.82h11.95v37.69h24.04v11.38h-35.98V14.82Z"/>
      <path class="cls-3" d="M118.49,16.67c0-3.27,2.63-5.9,5.83-5.9s5.97,2.63,5.97,5.9c0,2.99-2.7,5.83-5.97,5.83s-5.83-2.84-5.83-5.83ZM118.91,25.56h10.88v38.33h-10.88V25.56Z"/>
      <path class="cls-3" d="M134.8,44.19c0-11.16,8.46-19.48,19.34-19.48s19.27,8.32,19.27,19.48v19.7h-11.38v-19.7c0-5.05-3.2-8.11-7.89-8.11s-7.96,3.13-7.96,8.11v19.7h-11.38v-19.7Z"/>
      <path class="cls-3" d="M217.49,63.89h-13.94l-10.17-13.37-2.92,1.78v11.59h-11.38V27.98c0-8.75,5.83-18.06,17.35-17.99v11.38c-3.63,0-5.97,2.77-5.97,6.68v10.31l10.67-12.8h13.23l-13.23,16.57,16.36,21.76Z"/>
      <path class="cls-3" d="M219.46,14.82h11.95v37.69h24.04v11.38h-35.98V14.82Z"/>
      <path class="cls-3" d="M255.45,44.48c0-10.17,6.68-19.91,18.56-19.91,12.8.07,21.83,10.45,17.92,24.89h-24.04c.64,2.56,4.12,4.98,8.04,5.05,2.56,0,6.47-1,7.54-2.49l8.6,6.61c-3.91,4.27-10.1,5.97-17.14,5.97-11.52,0-19.48-10.17-19.48-20.12ZM280.76,39.71c.28-1.78-1.42-5.12-6.4-5.12-4.48,0-6.47,2.99-6.47,5.12h12.87Z"/>
      <path class="cls-3" d="M294.17,44.55c0-10.88,8.89-19.77,19.91-19.77s19.77,8.89,19.77,19.77v20.27h-11.38v-3.63c-2.06,1.92-5.12,3.2-8.39,3.2-11.02,0-19.91-8.89-19.91-19.84ZM322.47,44.55c0-4.62-3.77-8.39-8.39-8.39s-8.53,3.77-8.53,8.39,3.77,8.46,8.53,8.46,8.39-3.77,8.39-8.46Z"/>
      <path class="cls-3" d="M336.61,45.26c0-10.95,8.96-19.84,19.91-19.84,3.34,0,6.4,1.28,8.53,3.34v-14.65h11.38v32.57c0,3.63,2.06,5.48,3.84,5.48v11.73c-4.12,0-7.61-.21-10.67-4.34-3.27,3.7-7.18,5.62-13.08,5.62-10.95,0-19.91-8.89-19.91-19.91ZM365.05,45.26c0-4.69-3.84-8.46-8.53-8.46s-8.53,3.77-8.53,8.46,3.84,8.53,8.53,8.53,8.53-3.77,8.53-8.53Z"/>
    </g>
  </g>
</svg>
